X: 24500
T: Lucy Farr's
R: barndance
M: 4/4
K: Gmajor
M:2/4
DG GG|F/G/A/F/ G2|DB BB|A/B/c/A/ B2||
dd e2|cc d2|BB cc|AA B2|
dd e2|cc d2|BB cc|AA G2||

